static/fa/svgs/solid/house-circle-exclamation.svg

<svg xmlns="http://www.w3.org/2000/svg" viewBox="0 0 640 512"><!--! Font Awesome Free 6.1.1 by @fontawesome - https://fontawesome.com License - https://fontawesome.com/license/free (Icons: CC BY 4.0, Fonts: SIL OFL 1.1, Code: MIT License) Copyright 2022 Fonticons, Inc.--><path d="M320 352h-64c-17.7 0-32 14.3-32 32v88c0 22.1-17.9 40-40 40h-55.9c-1.5 0-3-.1-4.5-.2-1.2.1-2.4.2-3.6.2h-16c-22.09 0-40-17.9-40-40V360c0-.9.03-1.9.09-2.8v-69.6H32.05C14.02 287.6 0 273.5 0 255.5c0-9 3.004-17 10.01-24L266.4 8.016c7-7.014 15-8.016 22-8.016s15 2.004 21.1 7.014L522.1 193.9c-8.5-1.2-17.2-1.9-26.1-1.9-91.8 0-167.2 70.3-175.3 160h-.7zm32 16c0-79.5 64.5-144 144-144s144 64.5 144 144-64.5 144-144 144-144-64.5-144-144zm144 96c13.3 0 24-10.7 24-24s-10.7-24-24-24-24 10.7-24 24 10.7 24 24 24zm-16.9-176v80c0 8.8 8.1 16 16 16 9.7 0 16-7.2 16-16v-80c0-8.8-6.3-16-16-16-7.9 0-16 7.2-16 16z"/></svg>

<svg xmlns="http://www.w3.org/2000/svg" viewBox="0 0 640 512"><!--! Font Awesome Free 6.1.1 by @fontawesome - https://fontawesome.com License - https://fontawesome.com/license/free (Icons: CC BY 4.0, Fonts: SIL OFL 1.1, Code: MIT License) Copyright 2022 Fonticons, Inc. --><path d="M320 352H256C238.3 352 224 366.3 224 384V472C224 494.1 206.1 512 184 512H128.1C126.6 512 125.1 511.9 123.6 511.8C122.4 511.9 121.2 512 120 512H104C81.91 512 64 494.1 64 472V360C64 359.1 64.03 358.1 64.09 357.2V287.6H32.05C14.02 287.6 0 273.5 0 255.5C0 246.5 3.004 238.5 10.01 231.5L266.4 8.016C273.4 1.002 281.4 0 288.4 0C295.4 0 303.4 2.004 309.5 7.014L522.1 193.9C513.6 192.7 504.9 192 496 192C404.2 192 328.8 262.3 320.7 352L320 352zM352 368C352 288.5 416.5 224 496 224C575.5 224 640 288.5 640 368C640 447.5 575.5 512 496 512C416.5 512 352 447.5 352 368zM496 464C509.3 464 520 453.3 520 440C520 426.7 509.3 416 496 416C482.7 416 472 426.7 472 440C472 453.3 482.7 464 496 464zM479.1 288V368C479.1 376.8 487.2 384 495.1 384C504.8 384 511.1 376.8 511.1 368V288C511.1 279.2 504.8 272 495.1 272C487.2 272 479.1 279.2 479.1 288z"/></svg>
